!!!OTL: De Mayersohn (2-30), S. 131
!!!id: K1130
**kern
*clefG2
*k[b-]
*F:
{4c
=1
4f
4f
4g
4cc
=2
4a
4g
4f}
=3
{8f
8a
=4
8cc
8cc
8cc
8cc
8dd
8cc
8b-
8dd
=5
4.cc
8b-
4a}
=6
{8cc
8b-
=7
8a
8cc
8dd
8cc
8b-
8a
8g
8a
=8
4b-}
=9
{8cc
8b-
4a
4a
=10
4a
8b-
8a
8.g
16f
8.g
16f
=11
2g}
4r
=12
{8c
8c
=13
4f
4f
8a
8g
8f
8a
=14
4cc
4ff
4cc
8a
8f
=15
2g
4f}
==
*-
!!!minrhy: 16
!!!meters: 4/4 ]  ZZ[5
!!!cut: De Mayersohn (2-30), S. 131
!!!reg: Luxemburg
!!!trd: KINTZELE, Guillaume: An der Ucht, Bd. 2, Luxemburg 1927
!!!rhy1: X__  X__X__X__X__  X__X__X__   (x2)
!!!rhy2: X_X_  X_X_X_X_X_X_X_X_  X__.X_X__
!!!key: K1130  16  F 4/4 ]  ZZ[5
!!!mod: SECHSTONSKALA DUR ?]  AMBITUS[11
!!!kad: 13421
!!!akz: 1231_5653_344_3322_135521_
!!!fot: 'a__b__c__d__e__
!!!for: 'a__b__bw_c__d__
!!!fok: '^a_^a_Wd_\__Ma_
!! PHRAS[AUFTAKTIG]
!!!fkt: Werbung, Beischlaf
!! KINTZELE
!! PR[24] 2K[5] 2G[13] 3K[3] 3G[5] 4A[8] 4Ü[0] 5A[0] 6K[0] 6G[0]
!! 7K[0] 7G[0] 8A[0] MEHR[0] SI[34] ABS[38] SR[18] SP[16]
!! ST[8] 2k[11] 2g[29] 3k[3] 3g[0] 4d[0] 4ü[0] 5d[0] 6k[0] 6g[0]
!! 7k[0] 7g[0] 8d[0] mehr[0] si[42] dm[-8] sr[39] sp[3]
!! 1F[12] 2F[64] 3F[17] 4F[0] LF[0] 2P[7] 3P[0] 4P[0] TRI[0] DF[4] AB[42]
!! TF[0] U3K[0] U3[0] U4[0] U4Ü[0] U5[3] U6K[0] U6[0] U7K[0] U7[3]
!! N1[13] N2K[0] N2[18] N3K[0] N3[28] N4[13] N4Ü[0] N5[21] N6K[0] N6[3]
!!!n7k: 0] N7[0] O1[0] O2K[0] O2[0] O3K[0] O3[0] HÖ[0
